X:420
T: WILHELM KOMM AN MEINE SEITE
N: E0347B
O: Europa, Mitteleuropa, Deutschland, Brandenburg
R: historisches Lied, Tod Koenigin Louise (1810)
M: 4/4
L: 1/16
K: Eb
G2F2 | E6E2E4D2E2 | G2F2F4z4
B2G2 | F6F2F4B2A2 | G8z4
E2F2 | G6E2G4F2E2 | C3cc8
BAGF | E6G2B6D2 | E8z4
E2F2 | G6E2G4F2E2 | C3cc8
BAGF | E6G2B6D2 | E8z4

@@@ Tune index: 4070
